X:5715
T:Sleep Sound in the Morning
M:4/4
O:Shetland
R:Reel
Z:Richard Robinson 
%%TUNEURL: http://www.leeds.ac.uk/music/Info/RRTuneBk/gettune/00000802.html
%%ID:00000802
K:A dorian
AB|\
Aaag a2ef|gedB GABG|Aaag a2ef|gedB A2::\
AB|\
cAeA cAeA|BcdB G2AB|cAeA cAeA|BAGB A2AB|\
cAeA cAeA|BcdB G2GB|ABcd efga|gedB A2|]
